X:1
T:Suzuki - Guitar School - Book 1 - Lesson 2 - Lightly Row
M:C
K:G
L:1/4
[K: clef=treble-8]
d B B2|c A A2|G A B c|d d d2|
d B B B|c A A A|G B d d|B B B2|
A A A A|A B c2|B B B B|B c d2|
d B B B|c A A A|G B d d|B B B2|]

